X:938
T:Hogties
R:reel
C:Phil Cunningham
H:Originally in Ador and with four parts
D:L\'unasa
Z:id:hn-reel-938
M:C|
L:1/8
K:Edor
BABd E2ed | BABc d2cd | BABd E2ed | BABd FE~E2 |
BABd E2ed | BABc dA (3Bcd | e2dB ABdA | (3Bcd Ad FE~E2 :|
|: eB~B2 e2dB | BABc d2cd | eB~B2 e2dB | BABd FE~E2 |
eB~B2 e2dB | BABc dA (3Bcd | e2dB ABdA | (3Bcd Ad FE~E2 :|

